src/assets/icon.svg

<?xml version="1.0" standalone="no"?><!DOCTYPE svg PUBLIC "-//W3C//DTD SVG 1.1//EN" "http://www.w3.org/Graphics/SVG/1.1/DTD/svg11.dtd"><svg t="1706962739861" class="icon" viewBox="0 0 1960 1024" version="1.1" xmlns="http://www.w3.org/2000/svg" p-id="8407" xmlns:xlink="http://www.w3.org/1999/xlink" width="382.8125" height="200"><path d="M169.354588 676.004652v168.095446a72.872839 72.872839 0 1 1-145.745677 0V676.004652a72.872839 72.872839 0 0 1 72.872839-72.715446h1.416534a72.872839 72.872839 0 0 1 71.456304 72.715446z" fill="#FFDB93" p-id="8408"></path><path d="M914.923998 393.484683a614.776043 614.776043 0 0 0 198.000067 0l782.871489-161.642344c27.071551-5.351353 40.607327-12.434026 40.76472-19.5167l-5.823531 113.794952-323.284689 77.59462-494.527989 119.303697a614.776043 614.776043 0 0 1-198.000067 0l-502.240234-120.562839-314.78548-75.8633-6.610495-113.794951c0 7.082673 13.693168 14.165347 40.76472 19.516699z" fill="#D3EEE4" p-id="8409"></path><path d="M1895.795554 193.281118c27.228944 5.351353 40.76472 12.434026 40.76472 19.5167s-13.693168 14.165347-40.76472 19.516699L1112.924065 393.484683a614.776043 614.776043 0 0 1-198.000067 0L132.052509 232.314517C104.980958 226.963164 91.287789 220.352669 91.287789 212.797818s13.535776-14.165347 40.76472-19.5167L914.923998 31.481381a614.776043 614.776043 0 0 1 198.000067 0z" fill="#06C7CA" p-id="8410"></path><path d="M914.923998 523.018908a614.776043 614.776043 0 0 0 198.000067 0l494.527989-118.831518v513.57251c-12.591419 45.95868-274.965117 82.631189-596.83327 82.631189s-584.399244-36.672508-596.83327-82.631189V402.456069z" fill="#06C7CA" p-id="8411"></path><path d="M1010.146606 1024c-59.022278 0-565.512115-2.675677-616.507363-92.546931a22.821947 22.821947 0 0 1-4.56439-13.693169V402.456069h47.217822v508.378551c25.969802 27.386337 240.968285 65.947558 573.853931 65.947558s547.097165-38.403829 573.696537-65.790165v-506.804623h47.217822v513.57251a23.451518 23.451518 0 0 1-4.721782 14.165347c-52.411782 89.399076-557.1703 92.074753-616.192577 92.074753zM74.289373 327.064947h47.217822v276.224259h-47.217822z" fill="#18252F" p-id="8412"></path><path d="M96.48175 940.581848A96.48175 96.48175 0 0 1 0 844.100098V676.004652a96.48175 96.48175 0 0 1 96.48175-96.324357h2.046105a96.48175 96.48175 0 0 1 94.435644 96.324357v168.095446a96.639142 96.639142 0 0 1-96.481749 96.48175z m0.786963-313.683731A49.42132 49.42132 0 0 0 47.217822 676.004652v168.095446a49.263928 49.263928 0 0 0 98.527855 0V676.004652a49.263928 49.263928 0 0 0-48.476964-49.106535zM1917.830538 224.44488a78.69637 78.69637 0 0 0-26.441981-8.184422L1108.202283 54.775507a594.944557 594.944557 0 0 0-188.871288 0L136.774291 216.417851a79.798119 79.798119 0 0 0-26.756766 8.184422 15.739274 15.739274 0 0 0 4.721783-11.804455h-47.217823c0-31.478548 41.866469-39.190792 59.809242-42.653433L910.202216 8.502041A641.847594 641.847594 0 0 1 1117.488455 8.344648l783.028881 161.642344c17.627987 3.46264 59.651848 11.647063 59.651849 42.653433h-47.217822a15.739274 15.739274 0 0 0 4.879175 11.804455z" fill="#18252F" p-id="8413"></path><path d="M1013.924032 554.654849a563.780795 563.780795 0 0 1-103.564423-8.499208L91.759967 349.414716a23.608911 23.608911 0 0 1-18.100165-21.720198l-5.980924-113.322773v-1.259142A23.608911 23.608911 0 0 1 90.658218 188.874121a23.136733 23.136733 0 0 1 21.720198 13.063598 110.174918 110.174918 0 0 0 24.238482 6.92528l783.028882 161.95713a622.64568 622.64568 0 0 0 188.871288 0l782.714097-161.642344a110.174918 110.174918 0 0 0 24.395874-6.925281 23.608911 23.608911 0 0 1 44.699539 11.174885l-5.823532 113.480165A23.608911 23.608911 0 0 1 1935.930703 349.414716L1117.488455 545.840856a562.836439 562.836439 0 0 1-103.564423 8.813993zM119.933268 307.70564l800.499476 192.333928a526.950894 526.950894 0 0 0 93.491288 7.397459 524.904788 524.904788 0 0 0 94.435644-7.554851l799.712512-192.176536 2.833069-54.615281-10.545313 2.203498L1117.488455 417.093594a564.252973 564.252973 0 0 1-103.721816 8.499208 563.623402 563.623402 0 0 1-103.564423-8.499208L127.330727 255.45125l-10.230528-2.203498z" fill="#18252F" p-id="8414"></path></svg>

<?xml version="1.0" standalone="no"?>
<!DOCTYPE svg PUBLIC "-//W3C//DTD SVG 1.0//EN" "http://www.w3.org/TR/2001/REC-SVG-20010904/DTD/svg10.dtd">
<svg xmlns="http://www.w3.org/2000/svg" xmlns:xlink="http://www.w3.org/1999/xlink" id="body_1" width="383" height="200">

    <g transform="matrix(0.19540817 0 0 0.1953125 0 0)">
        <path d="M169.35458 676.00464L169.35458 844.1001C 169.35458 870.1351 155.4651 894.1924 132.91815 907.20984C 110.37122 920.2273 82.592255 920.2273 60.045315 907.20984C 37.49838 894.1923 23.608902 870.1351 23.608902 844.1001L23.608902 844.1001L23.608902 676.00464C 23.695686 635.8196 56.29657 603.2891 96.48174 603.2892L96.48174 603.2892L97.89828 603.2892C 137.52943 604.05963 169.27646 636.3661 169.35458 676.00464z"
              stroke="none" fill="#FFDB93" fill-rule="nonzero"/>
        <path d="M914.924 393.48468C 980.4906 404.1828 1047.3575 404.1828 1112.9241 393.48468L1112.9241 393.48468L1895.7955 231.84233C 1922.8671 226.49098 1936.4028 219.40831 1936.5603 212.32562L1936.5603 212.32562L1930.7368 326.12057L1607.4521 403.7152L1112.9242 523.0189C 1047.3577 533.71704 980.4907 533.71704 914.92413 523.0189L914.92413 523.0189L412.6839 402.4561L97.89841 326.59277L91.28791 212.79782C 91.28791 219.8805 104.98108 226.96317 132.05263 232.31451L132.05263 232.31451L914.924 393.48468z"
              stroke="none" fill="#D3EEE4" fill-rule="nonzero"/>
        <path d="M1895.7955 193.28111C 1923.0245 198.63246 1936.5603 205.71513 1936.5603 212.79782C 1936.5603 219.88051 1922.8672 226.96317 1895.7955 232.31451L1895.7955 232.31451L1112.9241 393.48468C 1047.3575 404.1828 980.4906 404.1828 914.924 393.48468L914.924 393.48468L132.0525 232.31451C 104.98096 226.96317 91.28779 220.35268 91.28779 212.79782C 91.28779 205.24297 104.82356 198.63248 132.0525 193.28113L132.0525 193.28113L914.924 31.48138C 980.4906 20.783264 1047.3575 20.783264 1112.9241 31.48138L1112.9241 31.48138L1895.7955 193.28111z"
              stroke="none" fill="#06C7CA" fill-rule="nonzero"/>
        <path d="M914.924 523.0189C 980.4906 533.71704 1047.3575 533.71704 1112.9241 523.0189L1112.9241 523.0189L1607.452 404.1874L1607.452 917.7599C 1594.8606 963.71857 1332.4869 1000.39105 1010.6188 1000.39105C 688.7506 1000.39105 426.21954 963.71857 413.78552 917.7599L413.78552 917.7599L413.78552 402.45605L914.924 523.0189z"
              stroke="none" fill="#06C7CA" fill-rule="nonzero"/>
        <path d="M1010.1466 1024C 951.1243 1024 444.63452 1021.32434 393.63922 931.45306C 390.67642 927.5027 389.07483 922.6979 389.07483 917.7599L389.07483 917.7599L389.07483 402.45605L436.29266 402.45605L436.29266 910.8346C 462.26245 938.22095 677.261 976.78217 1010.1466 976.78217C 1343.0322 976.78217 1557.2438 938.37836 1583.8431 910.992L1583.8431 910.992L1583.8431 404.18738L1631.0609 404.18738L1631.0609 917.7599C 1631.0723 922.87 1629.4143 927.844 1626.3391 931.92523C 1573.9274 1021.32434 1069.1688 1024 1010.14655 1024L1010.14655 1024L1010.1466 1024zM74.289375 327.06494L121.5072 327.06494L121.5072 603.2892L74.28938 603.2892z"
              stroke="none" fill="#18252F" fill-rule="nonzero"/>
        <path d="M96.48175 940.58185C 43.19635 940.58185 0 897.3855 0 844.1001L0 844.1001L0 676.00464C 0.08683014 622.7807 43.25777 579.68024 96.48175 579.6803L96.48175 579.6803L98.527855 579.6803C 150.95137 580.7923 192.88976 623.5694 192.9635 676.00464L192.9635 676.00464L192.9635 844.1001C 192.87685 897.34955 149.73122 940.4952 96.48175 940.58185zM97.268715 626.89813C 84.107025 626.7302 71.42211 631.8197 62.026417 641.0381C 52.630722 650.25653 47.3006 662.8422 47.217823 676.00464L47.217823 676.00464L47.217823 844.1001C 47.217815 871.3078 69.27403 893.364 96.48175 893.364C 123.689476 893.364 145.74568 871.3078 145.74568 844.1001L145.74568 844.1001L145.74568 676.00464C 145.66336 649.1626 124.10748 627.3267 97.26872 626.8981zM1917.8306 224.44489C 1909.5695 220.17593 1900.617 217.40494 1891.3885 216.26047L1891.3885 216.26047L1108.2023 54.77551C 1045.6469 44.718628 981.8863 44.718628 919.331 54.77551L919.331 54.77551L136.77429 216.41785C 127.44296 217.5488 118.38477 220.31955 110.017525 224.60226C 113.18136 221.50648 114.89534 217.22154 114.73931 212.7978L114.73931 212.7978L67.521484 212.7978C 67.521484 181.31926 109.387955 173.60701 127.33073 170.14438L127.33073 170.14438L910.2022 8.502041C 978.8329 -2.781128 1048.8407 -2.8342285 1117.4884 8.344648L1117.4884 8.344648L1900.5173 169.987C 1918.1453 173.44965 1960.1692 181.63406 1960.1692 212.64044L1960.1692 212.64044L1912.9514 212.64044C 1912.8363 217.08801 1914.6089 221.37654 1917.8306 224.4449z"
              stroke="none" fill="#18252F" fill-rule="nonzero"/>
        <path d="M1013.924 554.65485C 979.21466 555.01605 944.5458 552.17084 910.3596 546.15564L910.3596 546.15564L91.759964 349.4147C 81.57907 346.98715 74.21169 338.1463 73.6598 327.69452L73.6598 327.69452L67.67887 214.37173L67.67887 213.1126C 67.50966 206.8505 69.83614 200.77786 74.14607 196.23178C 78.45601 191.68568 84.39601 189.03888 90.65822 188.87411C 99.851654 188.52292 108.379616 193.65205 112.37842 201.93771C 120.16637 205.1659 128.29904 207.48953 136.6169 208.86299L136.6169 208.86299L919.64575 370.82013C 982.2365 380.42432 1045.9264 380.42432 1108.5171 370.82013L1108.5171 370.82013L1891.2312 209.17778C 1899.6028 207.81607 1907.789 205.49225 1915.6271 202.2525C 1920.5862 192.37794 1931.731 187.26399 1942.4508 189.94397C 1953.1708 192.62395 1960.5978 202.38084 1960.3267 213.42738L1960.3267 213.42738L1954.5032 326.90753C 1954.245 337.79578 1946.5719 347.0944 1935.9307 349.4147L1935.9307 349.4147L1117.4884 545.8409C 1083.3126 551.9669 1048.6436 554.9175 1013.92395 554.65485L1013.92395 554.65485L1013.924 554.65485zM119.933266 307.70563L920.43274 500.03955C 951.3145 505.2791 982.6024 507.7547 1013.924 507.437C 1045.566 507.7704 1077.1731 505.24182 1108.3596 499.88217L1108.3596 499.88217L1908.0721 307.70563L1910.9053 253.09035L1900.36 255.29384L1117.4884 417.0936C 1083.25 423.11578 1048.5286 425.961 1013.7666 425.5928C 979.0572 425.95483 944.3881 423.10968 910.20215 417.0936L910.20215 417.0936L127.33073 255.45125L117.1002 253.24776z"
              stroke="none" fill="#18252F" fill-rule="nonzero"/>
    </g>
</svg>
